assets/Musical score/Flat/musical_score_flat.svg

<svg width="32" height="32" viewBox="0 0 32 32" fill="none" xmlns="http://www.w3.org/2000/svg">
<path d="M7 5.5H28H30V23.5H29.5H7V5.5Z" fill="#B4ACBC"/>
<path d="M8.29 6.0166V9.50012H29.5C29.7762 9.50012 30 9.72398 30 10.0001C30 10.2763 29.7762 10.5001 29.5 10.5001H8.29V14.0137H29.5C29.7762 14.0137 30 14.2375 30 14.5137C30 14.7898 29.7762 15.0137 29.5 15.0137H8.29V18.5H29.5C29.7762 18.5 30 18.7239 30 19C30 19.2761 29.7762 19.5 29.5 19.5H8.29V23.0164H29.5C29.7762 23.0164 30 23.2402 30 23.5164C30 23.7925 29.7762 24.0164 29.5 24.0164H4.30005C4.25605 24.0164 4.21337 24.0107 4.17272 24H2.8C2.36 24 2 23.6416 2 23.2037V5.82368C2 5.38569 2.36 5.02734 2.8 5.02734H4.19647C4.22989 5.0203 4.26454 5.0166 4.30005 5.0166H29.5C29.7762 5.0166 30 5.24046 30 5.5166C30 5.79274 29.7762 6.0166 29.5 6.0166H8.29Z" fill="#CDC4D6"/>
<path d="M19.01 2.25C17.4158 2.25 16.12 3.54579 16.12 5.14V11.3967C13.1882 12.03 10.99 14.6393 10.99 17.76C10.99 20.6372 13.2624 22.9846 16.11 23.1051V26.98C16.11 27.9458 15.3258 28.73 14.36 28.73C13.8064 28.73 13.3125 28.4723 12.9917 28.0705C13.7669 27.9496 14.36 27.2791 14.36 26.47C14.36 25.5753 13.6347 24.85 12.74 24.85C11.8694 24.85 11.1592 25.5367 11.1216 26.398C11.114 26.4408 11.11 26.4849 11.11 26.53V26.98C11.11 28.7742 12.5658 30.23 14.36 30.23C16.1542 30.23 17.61 28.7742 17.61 26.98V22.9248C19.4365 22.378 20.77 20.6829 20.77 18.68C20.77 16.8192 19.398 15.2803 17.61 15.0191V12.742C17.6437 12.737 17.6766 12.7299 17.7087 12.7206C20.0935 12.3214 21.91 10.2485 21.91 7.75V5.14L21.91 5.13364C21.8965 3.54563 20.6054 2.25 19.01 2.25ZM19.27 18.68C19.27 19.841 18.5914 20.8464 17.61 21.3203V16.5467C18.5644 16.7871 19.27 17.6506 19.27 18.68ZM16.11 21.6032C14.0912 21.4842 12.49 19.8086 12.49 17.76C12.49 15.4764 14.0198 13.5484 16.11 12.9455V15.1317C14.8638 15.5374 13.96 16.7106 13.96 18.09C13.96 18.5042 14.2958 18.84 14.71 18.84C15.1242 18.84 15.46 18.5042 15.46 18.09C15.46 17.5632 15.7161 17.0936 16.11 16.7995V21.6032ZM17.62 5.14C17.62 4.37421 18.2442 3.75 19.01 3.75C19.7736 3.75 20.4019 4.37284 20.41 5.14351V7.75C20.41 9.44843 19.2153 10.8666 17.62 11.2105V5.14Z" fill="#1C1C1C"/>
</svg>

<svg xmlns="http://www.w3.org/2000/svg" width="32" height="32" fill="none"><path fill="#B4ACBC" d="M7 5.5h23v18H7v-18Z"/><path fill="#CDC4D6" d="M8.29 6.017V9.5H29.5a.5.5 0 1 1 0 1H8.29v3.514H29.5a.5.5 0 1 1 0 1H8.29V18.5H29.5a.5.5 0 1 1 0 1H8.29v3.516H29.5a.5.5 0 1 1 0 1H4.3A.5.5 0 0 1 4.173 24H2.8a.8.8 0 0 1-.8-.796V5.824a.8.8 0 0 1 .8-.797h1.396a.502.502 0 0 1 .104-.01h25.2a.5.5 0 1 1 0 1H8.29Z"/><path fill="#1C1C1C" d="M19.01 2.25a2.892 2.892 0 0 0-2.89 2.89v6.257a6.514 6.514 0 0 0-5.13 6.363 5.35 5.35 0 0 0 5.12 5.345v3.875a1.75 1.75 0 0 1-3.118 1.09 1.62 1.62 0 1 0-1.87-1.672.754.754 0 0 0-.012.132v.45a3.25 3.25 0 0 0 6.5 0v-4.055a4.436 4.436 0 0 0 3.16-4.245 3.7 3.7 0 0 0-3.16-3.66v-2.278a.75.75 0 0 0 .099-.021A5.04 5.04 0 0 0 21.91 7.75V5.134a2.908 2.908 0 0 0-2.9-2.884Zm.26 16.43a2.934 2.934 0 0 1-1.66 2.64v-4.773a2.2 2.2 0 0 1 1.66 2.133Zm-3.16 2.923a3.85 3.85 0 0 1-3.62-3.843 5.014 5.014 0 0 1 3.62-4.815v2.187a3.117 3.117 0 0 0-2.15 2.958.75.75 0 0 0 1.5 0c0-.527.256-.996.65-1.29v4.803ZM17.62 5.14c0-.766.624-1.39 1.39-1.39.764 0 1.392.623 1.4 1.394V7.75a3.54 3.54 0 0 1-2.79 3.46V5.14Z"/></svg>
